X: 235
T: Joc de Zestre din Suceava
O: Romania
M: 7/8
L: 1/8
Q: 1/4=210
K:Dm
%%MIDI program 69
%%MIDI bassprog 116
%%MIDI gchord fzfzfz2
|:"D"C2DE FEF|GFE2 FEF |\
  GFGA BAG   |GFE2 FEF |
  =B,CDE FEF |GFFE FEF |\
  GFGA GFE   |D6z      :|
|:"F"A2cB AGz| A2cB AGz|\
  GFGA BAG   | GFAB c2z|
  A2cB AGz   | A2cB AGz|\
  GFGA BAG   |[1 F4z3  :|[2F4FEF|
|:"D"G3AGFE  | DEFGA2z |\
  AcBAG2z    | DEFGA2z |
  G3AGFE     | DEFGA2z |\
  AcBAG2z    | D4z3    :|



